X: 1286
T: An Feochán
R: polka
M: 2/4
K: Edorian
|:E>F G<E|B2 A>B|G<E d2|Bc/d/ Bc/d/|e>f d>f|
e3B|g>B f>B|e<B/B/ g>f|e<B BA|G>B F>B|E4:|
|:ee ed/B/|b/^a/b- b2|ee- ed/B/|d2- de/f/|e2 dB|
g>B f>B|e3f ed|Bc/d/ d>e|EF/G/ G>e|B(3B/A/G/ F>B|EE- E2:|
|:E>F G<E|B2 A>B|G<E d2|Bc/d/ Bc/d/|e>f d>f|
e3B|g>B f>B|e<B/B/ g>f|e<B BA|G>B F>B|E4|
B|EF G>B|E>c (d2|d2 d2)|Bc/d/ Bc/d/|e>f d>f|
e3B|g>B f>B|e<B/B/ g>f|e<B BA|G>B F>B|E4||
|:ee ed/B/|b/^a/b- b2|ee ed/B/|d2- de/f/|e2 dB|
g>B f>B|e>f ed|Bc/d/ d>e|EF/G/ Ge|B(3B/A/G/ F>B|EE- E2:|

